X: 35
T:Fanny Power
M:3/4
L:1/4
C:Turlough O'Carolan
R:Other
O:Ireland
K:G
D |:"G"G2 D|G>A B|"C"c2 "G"B|"D"A2 "G"G|"D"F>E "G"D|"G"D"C"E "G"D|"D"F2
"G"G|"D"A2 "C"c|!
"G"B>A G|B "C"c"G"d|"C"e2 "D"A|A2 "G"G|"D"F>E "G"D|DG "D"F|("G"G3|[1G2)
(3D/2E/2F/2 :|!
[2G2 d||"G"d B/c/ d|d B/c/ d|G2 G|GB G| "C"e c/d/ e|
e c/d/ e|Ac A|!
"D"A"C"c "D"A|"G"B>c d|"C"e"D"f "G"g|"D"f"G"g "D"a|"G"d "C"ec|"G"B>A G|"
C"{A}c2 "D"F|("G"G3 |[1G2) d:|[2"G"G3| G3 |]
